portfolio/public/aboutMeBackground.svg

<svg xmlns="http://www.w3.org/2000/svg" version="1.1" xmlns:xlink="http://www.w3.org/1999/xlink" xmlns:svgjs="http://svgjs.dev/svgjs" viewBox="0 0 800 800" width="800" height="800"><defs><pattern id="mmmotif-pattern" width="40" height="40" patternUnits="userSpaceOnUse" patternTransform="translate(0 0) scale(1) rotate(45) skewX(0) skewY(0)">
    <path d="M7.92969 25.4865L7.92986 19.4866L16.7597 24.5865V30.5865L7.92969 25.4865Z" fill="#6aff83"></path>
    <path d="M16.76 30.5865L16.7598 24.5865L28.84 22.7278L28.8435 28.7265L16.76 30.5865Z" fill="#00ba19"></path>
    <path d="M32.07 21.7465V15.7466L28.8398 22.7266L28.84 28.7266L32.07 21.7465Z" fill="#6aff83"></path>
    <path d="M11.1611 12.5162L23.2352 10.6485L32.074 15.7512L28.8388 22.7216L16.7647 24.5893L7.92586 19.4866L11.1611 12.5162Z" fill="#04ee51"></path>
</pattern></defs><rect width="800" height="800" fill="url(#mmmotif-pattern)"></rect></svg>

<svg xmlns="http://www.w3.org/2000/svg" width="800" height="800"><defs><pattern id="a" width="40" height="40" patternUnits="userSpaceOnUse" patternTransform="rotate(45)"><path d="M7.93 25.486v-6l8.83 5.1v6l-8.83-5.1Z" fill="#6aff83"/><path d="M16.76 30.587v-6l12.08-1.86.003 6-12.083 1.86Z" fill="#00ba19"/><path d="M32.07 21.747v-6l-3.23 6.98v6l3.23-6.98Z" fill="#6aff83"/><path d="m11.161 12.516 12.074-1.867 8.839 5.102-3.235 6.97-12.074 1.868-8.84-5.102 3.236-6.97Z" fill="#04ee51"/></pattern></defs><path fill="url(#a)" d="M0 0h800v800H0z"/></svg>
